!!!!SEGMENT: pl-kk--kk-i-40--012-002_croce-giovanni--missa-decantabat-populq-et-in-terra.krn
!!!cenid: 16xx:1324
!!!COM: Croce, Giovanni
!!!COM-rismid: pe30000764
!!!CDT: 1557-1609/05/15
!!!CNT: Italian
!!!OTL: Missa Decantabat Populq – Et in terra
!!!PDT:
!!!AGN: Sacred; Mass
!!!SMS-siglum: PL-Kk
!!!SMS-shelfmark: Kk.I.40
!!!SMS-shelfwork: 012-002 M
!!!SMS-variant:
!!!SMS-altvar:
!!!NIFC-rismid: 1001154535
!!!URL-scan: http://repozytorium.nifc.pl/skany/pl-kk-nut--i-40
!!!ONB-nifc: UWAGA: części Mszy: 1. Kyrie, 2. Et in terra, 3. Sanctus, 4. Agnus Dei. Skan 0016-0017
**kern	**text
*I"Baſso Ripieno.	*
*I'B rip	*
*clefF4	*
*k[b-]	*
*M2/1	*
*met(C|)	*
=1	=1
00r	.
=2-	=2-
.	.
=3-	=3-
!LO:TX:t=P:problem:kreska pseudotaktowa	!
0r	.
=4-	=4-
*2\right	*
2.D\	Et
4D\	in
2F\	ter-
!LO:TX:t=P:problem:kreska pseudotaktowa	!
2D\	-ra
=5-	=5-
2G\	pax
2G\	ho-
2.E-X\	-mi-
!LO:TX:t=P:problem:kreska pseudotaktowa	!
4E-\	-ni-
=6-	=6-
2D,<\	-b(us)
1D\	bo-
!LO:TX:t=P:problem:kreska pseudotaktowa	!
2D/	-nae
=7-	=7-
1.GG/	vo-
2G\	-lun-
=8-	=8-
0D\	-ta-
=9-	=9-
!LO:TX:t=P:problem:kreska pseudotaktowa	!
1GG/	-tis
00r	.
=10-	=10-
.	.
=11-	=11-
.	.
!LO:TX:t=P:problem:kreska pseudotaktowa	!
1r	.
=12-	=12-
2r	.
2G\	Lau-
2F\	-da-
2E-X\	-m(us)
=13-	=13-
!LO:TX:t=P:problem:kreska pseudotaktowa	!
1D\	Te
0r	.
=14-	=14-
.	.
2.D\	a-
4D\	-do-
=15-	=15-
2F\	-ra-
2G\	-m(us)
!LO:TX:t=P:problem:kreska pseudotaktowa	!
1D\	Te
=16-	=16-
1r	.
2r	.
2D\	glo-
=17-	=17-
2.G\	-ri-
4G\	-fi-
2C/	-ca-
2D/	-m(us)
=18-	=18-
!LO:TX:t=P:problem:kreska pseudotaktowa	!
1GG/	Te
00r	.
=19-	=19-
.	.
=20-	=20-
.	.
00r	.
=21-	=21-
.	.
=22-	=22-
.	.
0r	.
=23-	=23-
.	.
!LO:TX:t=P:problem:kreska pseudotaktowa	!
1r	.
!LO:PB:g=original	!
=24-	=24-
2r	.
!LO:TX:t=P:problem:kreska pseudotaktowa	!
2D\	Do-
2G\	-mi-
!LO:TX:t=P:problem:kreska pseudotaktowa	!
2B-\	-ne
=25-	=25-
1A\	DE-
!LO:TX:t=P:problem:kreska pseudotaktowa	!
1D\	-US
=26-	=26-
1r	.
2r	.
1D\	Rex
=27-	=27-
.	.
!LO:TX:t=P:problem:kreska pseudotaktowa	!
2D/	cae-
1BB-/	-les-
=28-	=28-
2AA,</	-tis
1A\	De-
!LO:TX:t=P:problem:kreska pseudotaktowa	!
2F#X\	-(us)
=29-	=29-
1G\	Pa-
2C/	-ter
2C/	o-
=30-	=30-
1.D\	-mni-
2D\	-po-
=31-	=31-
!LO:TX:t=P:problem:kreska pseudotaktowa	!
1GG/	-tens
0r	.
=32-	=32-
.	.
2.D\	U-
4D\	-ni-
=33-	=33-
2Fny\	-ge-
2G\	-ni-
!LO:TX:t=P:problem:kreska pseudotaktowa	!
1D\	-te
=34-	=34-
1r	.
2r	.
!LO:TX:t=P:problem:kreska pseudotaktowa	!
2D\	Je-
=35-	=35-
2.G\	-su
!LO:TX:t=P:problem:kreska pseudotaktowa	!
4F\	.
4E-X/	.
4D/	.
2C/	.
=36-	=36-
1D\	X-
!LO:TX:t=P:problem:kreska pseudotaktowa	!
1GG/	-te
=37-	=37-
1r	.
1D\	Je-
=38-	=38-
1.G\	.
!LO:TX:t=P:problem:kreska pseudotaktowa	!
2G\	-su
!LO:LB:g=original	!
=39-	=39-
0D\	x-
=40-	=40-
!LO:TX:t=P:problem:kreska pseudotaktowa	!
1G\	-te
!LO:TX:t=P:problem:kreska pseudotaktowa	!
0r	.
=41-	=41-
.	.
2r	.
2.D\	Do-
=42-	=42-
.	.
4F\	-mi-
!LO:TX:t=P:problem:kreska pseudotaktowa	!
2G\	-ne
1C/	De-
=43-	=43-
2D,</	-(us)
1D\	a-
2GG/	-gn(us)
=44-	=44-
!LO:TX:t=P:problem:kreska pseudotaktowa	!
1E-X\	De-
2D,<\	-i
2D\	Fi-
=45-	=45-
4E-X\	-li-
4BB-/	-(us)
2F\	Pa-
!LO:TX:t=P:problem:kreska pseudotaktowa	!
1BB-/	-tris
=46-	=46-
2r	.
4r	.
*	*ij
!LO:TX:t=P:problem:kreska pseudotaktowa	!
4D/	Fi-
4G\	-li-
4G\	-(us)
2D\	Pa-
=47-	=47-
2GG/	-tris
*	*Xij
!LO:TX:t=P:problem:kreska pseudotaktowa	!
2r	.
2r	.
2.C/	Fi-
=48-	=48-
.	.
4C/	-li-
2GG/	-us
1D\	Pa-
=49-	=49-
0GG/;	-tris.
!LO:LB:g=original	!
=50||-	=50||-
*M2/1	*
*met(C|)	*
!LO:TX:t=P:problem:kreska pseudotaktowa	!
1G\	Qui
1G\	tol-
=51-	=51-
2D\	-lis
2G\	p(ec)-
2F#X\	-ca-
!LO:TX:t=P:problem:kreska pseudotaktowa	!
2G\	-ta
=52-	=52-
1E-X\	mun-
!LO:TX:t=P:problem:kreska pseudotaktowa	!
1D\	-di
=53-	=53-
00r	.
=54-	=54-
.	.
=55-	=55-
2r	.
1A\	mi-
!LO:TX:t=P:problem:kreska pseudotaktowa	!
2F#X\	-ſe-
=56-	=56-
2G\	-re-
2B-\	-re
1A\	no-
=57-	=57-
!LO:TX:t=P:problem:kreska pseudotaktowa	!
1D\	-bis
0r	.
=58-	=58-
.	.
2r	.
!LO:TX:t=P:problem:kreska pseudotaktowa	!
2D\	Qui
=59-	=59-
1D\	tol-
2D/	-lis
2D/	pec-
=60-	=60-
2BB-/	-ca-
!LO:TX:t=P:problem:kreska pseudotaktowa	!
2C/	-ta
1D\	mun-
=61-	=61-
!LO:TX:t=P:problem:kreska pseudotaktowa	!
0GG/	-di
=62-	=62-
1.D\	Sus-
2D\	-ci-
=63-	=63-
!LO:TX:t=P:problem:kreska pseudotaktowa	!
1GG/	-pe
!LO:TX:t=P:problem:kreska pseudotaktowa	!
1r	.
!LO:LB:g=original	!
=64-	=64-
2r	.
1A\	de-
!LO:TX:t=P:problem:kreska pseudotaktowa	!
2Fny\	-pre-
=65-	=65-
2.G\	-ca-
4G\	-ti-
2G\	-o-
!LO:TX:t=P:problem:kreska pseudotaktowa	!
2B-\	-nem
=66-	=66-
1A\	no-
!LO:TX:t=P:problem:kreska pseudotaktowa	!
1D\	-stram
=67-	=67-
00r	.
=68-	=68-
.	.
=69-	=69-
00r	.
=70-	=70-
.	.
=71-	=71-
!LO:TX:t=P:problem:kreska pseudotaktowa	!
0r	.
=72-	=72-
2r	.
1G\	mi-
!LO:TX:t=P:problem:kreska pseudotaktowa	!
2D\	-se-
=73-	=73-
2F\	-re-
2C/	-re
1D\	no-
=74-	=74-
!LO:TX:t=P:problem:kreska pseudotaktowa	!
1GG/	-bis.
2.G\	Quo-
4G\	-ni-
=75-	=75-
!LO:TX:t=P:problem:kreska pseudotaktowa	!
1G\	-am
2r	.
2G\	Tu
=76-	=76-
2F#X\	so-
!LO:TX:t=P:problem:kreska pseudotaktowa	!
2G\	-l(us)
2D/	San-
2GG/	-ct(us)
=77-	=77-
2r	.
2G\	Tu
2D\	so-
!LO:TX:t=P:problem:kreska pseudotaktowa	!
2GG/	-l(us)
=78-	=78-
!LO:TX:t=P:problem:kreska pseudotaktowa	!
0r	.
!LO:LB:g=original	!
=79-	=79-
2r	.
*	*ij
2G\	Tu
2G\	so-
!LO:TX:t=P:problem:kreska pseudotaktowa	!
2C/	-l(us)
*	*Xij
=80-	=80-
2BBn/	Do-
2C/	-mi-
!LO:TX:t=P:problem:kreska pseudotaktowa	!
1G\	-n(us),
=81-	=81-
0r	.
=82-	=82-
2r	.
2GG/	Tu
!LO:TX:t=P:problem:kreska pseudotaktowa	!
1D\	so-
=83-	=83-
2D/	-lus
2BB-y/	al-
2Fny\	-tiſ-
2G\	-si-
=84-	=84-
!LO:TX:t=P:problem:kreska pseudotaktowa	!
1D\	-m(us)
!LO:TX:t=P:problem:kreska pseudotaktowa	!
0r	.
=85-	=85-
.	.
2r	.
!LO:TX:t=P:problem:kreska pseudotaktowa	!
2D\	JE-
=86-	=86-
2.G\	.
4F\	.
4E-X\	.
4D\	.
!LO:TX:t=P:problem:kreska pseudotaktowa	!
2C/	-su
=87-	=87-
1D\	x-
2GG,</	-te
*	*ij
1G\	JE-
=88-	=88-
.	.
2GG/	-su
1D\	x-
=89-	=89-
*M3/2	*
1GG/,<	-te
*	*Xij
!LO:TX:t=P:problem:kreska pseudotaktowa	!
2r	.
=90-	=90-
2G\	Cum
2G\	S(an)-
!LO:TX:t=P:problem:kreska pseudotaktowa	!
2G\	-cto
!LO:LB:g=original	!
=91-	=91-
1C/	Spi-
2D\	-ri-
=92-	=92-
1GG/	-tu
!LO:TX:t=P:problem:kreska pseudotaktowa	!
2r	.
=93-	=93-
1.r	.
=94-	=94-
2r	.
2r	.
!LO:TX:t=P:problem:kreska pseudotaktowa	!
2D\	in
=95-	=95-
2.G\	glo-
4G\	-ri-
!LO:TX:t=P:problem:kreska pseudotaktowa	!
2C/	-a
=96-	=96-
2F\	De-
2BB-/	-i
!LO:TX:t=P:problem:kreska pseudotaktowa	!
2C/	Pa-
=97-	=97-
2GG/	-tris
1D\	a-
=98-	=98-
1GG/	-men
!LO:TX:t=P:problem:kreska pseudotaktowa	!
2r	.
=99-	=99-
1.r	.
=100-	=100-
2r	.
2r	.
!LO:TX:t=P:problem:kreska pseudotaktowa	!
2G\	in
=101-	=101-
2.D\	glo-
4D\	-ri-
!LO:TX:t=P:problem:kreska pseudotaktowa	!
2G\	-a
=102-	=102-
2.C/	De-
4C/	-i
!LO:TX:t=P:problem:kreska pseudotaktowa	!
2C/	Pa-
=103-	=103-
2GG,</	-tris
1D\	a-
=104-	=104-
1G\,<	-men
!LO:TX:t=P:problem:kreska pseudotaktowa	!
2GG/	in
=105-	=105-
2.D/	glo-
4D/	-ri-
!LO:TX:t=P:problem:kreska pseudotaktowa	!
2GG/	-a
!LO:LB:g=original	!
=106-	=106-
2.C/	De-
4C/	-i
!LO:TX:t=P:problem:kreska pseudotaktowa	!
2C/	Pa-
=107-	=107-
2G\	-tris
1D\	a-
=108-	=108-
0.GG/;	-men-
=109-	=109-
.	.
==	==
*-	*-
!!!RDF**kern: < = below
!!!EED: Andrzej Borzym
!!!EST: 2021-08-02
!!!ENC:Anastazja Marusiak
!!!END:2021-07-05
